kora/actions/scalable/archive.svg

<svg xmlns="http://www.w3.org/2000/svg" style="fill-rule:evenodd;clip-rule:evenodd;stroke-linejoin:round;stroke-miterlimit:2" width="100%" height="100%" version="1.1" viewBox="0 0 16 16" xml:space="preserve">
 <defs>
  <style id="current-color-scheme" type="text/css">
   .ColorScheme-Text { color:#dfdfdf; } .ColorScheme-Highlight { color:#4285f4; } .ColorScheme-NeutralText { color:#ff9800; } .ColorScheme-PositiveText { color:#4caf50; } .ColorScheme-NegativeText { color:#f44336; }
  </style>
 </defs>
 <path style="fill:currentColor;" class="ColorScheme-Text" d="M3,1c-0.554,0 -0.825,0.475 -1,1l-1,3l0,8c0,0.554 0.446,1 1,1l12,0c0.554,0 1,-0.446 1,-1l0,-8l-1,-3c-0.175,-0.526 -0.446,-1 -1,-1l-10,0Zm9.908,1l-9.815,0c-0.039,0.073 -0.112,0.218 -0.144,0.316l-0.949,2.846l0,7.838l12,0l0,-7.838l-0.949,-2.846c-0.033,-0.098 -0.105,-0.243 -0.143,-0.316Zm-5.908,4l2,0l0,3l1.75,0l-2.75,3l-2.75,-3l1.75,0l0,-3Zm-3.33,-3l8.66,0l0.334,1l-9.33,0l0.336,-1Z"/>
</svg>

<svg xmlns="http://www.w3.org/2000/svg" width="16" height="16" version="1.1">
 <defs>
  <style id="current-color-scheme" type="text/css">
   .ColorScheme-Text { color:#dfdfdf; } .ColorScheme-Highlight { color:#4285f4; }
  </style>
 </defs>
 <path style="fill:currentColor" class="ColorScheme-Text" d="M 3,1 C 2.446,1 2.1749,1.4754 2,2 L 1,5 V 13 C 1,13.554 1.446,14 2,14 H 14 C 14.554,14 15,13.554 15,13 V 5 L 14,2 C 13.825,1.4744 13.554,1 13,1 Z M 3.6699,3 H 12.33 L 12.664,4 H 3.334 Z M 7,6 H 9 V 9 H 10.75 L 8,12 5.25,9 H 7 Z"/>
</svg>
